X:31
T:Ekaterina's Favourite
M:C|
C:© Paul Gitlitz 2006
B:Anna's Smile
N:After an evening of Backgammon, Senet, and Scrabble Catherine mentioned she loved eastern sounding music.The next morning this appeared.
K:Gm
"Gm"g2ga bag2|d2g2 d2g2|"D"a2ba "Gm"g2ag|"D"^f2gf "Eb"e2d2|!
"Gm"g2ga bag2|d2g2 d2g2|"D"^f2fg agf2|"Gm"g2d2 B2G2|!
"Gm"g2ga bag2|d2g2 d2g2|"D"^f2gf "Eb"e2fe|"D"d2ed "Cm"c2B2|!
"Cm"cdeg a2g2|"Gm"Bdgb a2g2|"D"^fefg agf2|"Gm"g2d2 B2G2|!
"Eb"E2EF GFE2|"Gm"D2G2 B2d2|"Gm"d2ed "Cm"c2dc |"Gm"B2cB "D"A2^F2|!
"Eb"E2EF GFE2|"Gm"D2G2 B2G2|"D"A2G2("Eb"{^FG}F2)E2|"D"D2^C2 D4|!
"Eb"E2EF GFE2|"Gm"D2G2 B2d2|"D"A2BA "Gm"G2AG|"D"^F2GF "Eb"E2D2|!
"Cm"CDE^F "F"ABc2| "Gm"d2g2 d2g2|"D"dBA^F "Cm"GEDC|"D7"B,D A,D "Gm"G,4|] ]
